X: 184
T: Miss Mary Buchanan's Strathspey
R: strathspey
B: William Shepherd "2nd Collection" 1800 p.18 #4
F: http://imslp.org/wiki/File:PMLP73094-Shepherd_Collections_HMT.pdf
C: William Shepherd (17??-1812)
Z: 2012 John Chambers <jc:trillian.mit.edu>
M: C
L: 1/16
K: F
A2 |\
F3cA3F EG3 TB4 | F3cA3c f3c ABcA |\
F3cA3F EG3 TB4 | B,3G (FE).D.C F4 F2 :|
c2 |\
f3c {B}A2.G.F E3G TB4 | TF3cA3f TF3cA2F2 |\
B3dc3F EFGF E3C | B,3G FEDC TF4 F2 ||
c2 |\
f3c {B}A2.G.F E3G TB4 | TF3cA3f TF3cA2F2 |\
B3dc3F (EF).G.F E3C | B,3G (FE).D.C F4 F2 |]
